assets/xendit/original.svg

<svg viewBox="0 0 24 24" xmlns="http://www.w3.org/2000/svg" fill="#4573FF"><path d="m11.781 2.743h-3.816l-5.341 9.264 5.341 9.263-1.312 2.266-6.653-11.529 6.653-11.543h6.454zm-5.128 2.28 1.312-2.28 1.908 3.287-1.312 2.266zm9.382-2.28 1.312 2.28-9.382 16.247-1.312-2.279zm-5.128 20.793 1.298-2.279h3.83l-1.935-3.326 1.312-2.267 1.926 3.337 4.038-6.994-5.341-9.264 1.312-2.279 6.653 11.543-6.653 11.529z"/></svg>

<svg xmlns="http://www.w3.org/2000/svg" fill="#4573ff" viewBox="0 0 24 24"><path d="M11.781 2.743H7.965l-5.341 9.264 5.341 9.263-1.312 2.266L0 12.007 6.653.464h6.454zm-5.128 2.28 1.312-2.28L9.873 6.03 8.561 8.296zm9.382-2.28 1.312 2.28L7.965 21.27l-1.312-2.279zm-5.128 20.793 1.298-2.279h3.83L14.1 17.931l1.312-2.267 1.926 3.337 4.038-6.994-5.341-9.264L17.347.464 24 12.007l-6.653 11.529z"/></svg>
